styles/emoji-one/1f4b6.svg

<svg xmlns="http://www.w3.org/2000/svg" viewBox="0 0 64 64" enable-background="new 0 0 64 64"><path fill="#428bc1" d="m0 46.5h64v9h-64z"/><path fill="#42ade2" d="m0 8.5h64v38h-64z"/><path fill="#94989b" d="m24 46.5h16v9h-16z"/><path fill="#428bc1" d="m4 12.5h56v30h-56z"/><path fill="#42ade2" d="m7 15.5h50v24h-50z"/><circle fill="#428bc1" cx="45" cy="27.5" r="8"/><path fill="#d0d0d0" d="m24 8.5h16v38h-16z"/><path fill="#fff" d="m19.338 33.5c-2.236 0-4.188-1.208-5.238-3h6.674v-2h-7.402c-.055-.326-.09-.658-.09-1s.035-.674.09-1h7.402v-2h-6.674c1.051-1.791 3-3 5.238-3 .408 0 .814.04 1.211.119l.451-1.955c-.543-.109-1.104-.164-1.662-.164-3.434 0-6.375 2.072-7.594 5h-2.744v2h2.211c-.041.328-.07.66-.07 1s.029.672.07 1h-2.211v2h2.744c1.219 2.927 4.16 5 7.594 5 .559 0 1.119-.055 1.662-.164l-.451-1.955c-.397.078-.803.119-1.211.119"/></svg>

<svg xmlns="http://www.w3.org/2000/svg" viewBox="0 0 64 64"><path fill="#428bc1" d="M0 46.5h64v9H0z"/><path fill="#42ade2" d="M0 8.5h64v38H0z"/><path fill="#94989b" d="M24 46.5h16v9H24z"/><path fill="#428bc1" d="M4 12.5h56v30H4z"/><path fill="#42ade2" d="M7 15.5h50v24H7z"/><circle fill="#428bc1" cx="45" cy="27.5" r="8"/><path fill="#d0d0d0" d="M24 8.5h16v38H24z"/><path fill="#fff" d="M19.338 33.5a6.064 6.064 0 0 1-5.238-3h6.674v-2h-7.402c-.055-.326-.09-.658-.09-1s.035-.674.09-1h7.402v-2H14.1c1.051-1.791 3-3 5.238-3 .408 0 .814.04 1.211.119L21 19.664a8.477 8.477 0 0 0-1.662-.164c-3.434 0-6.375 2.072-7.594 5H9v2h2.211c-.041.328-.07.66-.07 1s.029.672.07 1H9v2h2.744c1.219 2.927 4.16 5 7.594 5A8.47 8.47 0 0 0 21 35.336l-.451-1.955a6.286 6.286 0 0 1-1.211.119"/></svg>
